dist/svgs/core-ui-icons/brand/cib-vue-js.svg

<svg xmlns="http://www.w3.org/2000/svg" width="32" height="32" viewBox="0 0 32 32">
  <path d="M24.306 4.019h-4.806l-3.5 5.537-3-5.537h-11l14 23.981 14-23.981zM5.481 6.019h3.363l7.156 12.387 7.15-12.387h3.363l-10.512 18.012z"/>
</svg>

<svg xmlns="http://www.w3.org/2000/svg" viewBox="0 0 32 32"><path d="M24.306 4.019H19.5L16 9.556l-3-5.537H2L16 28 30 4.019zm-18.825 2h3.363L16 18.406l7.15-12.387h3.363L16.001 24.031z"/></svg>
